flaticon/holiday/bat.svg

<svg xmlns="http://www.w3.org/2000/svg" width="32" height="32" viewBox="0 0 24 24">
    <path d="M 23.761719 3.175781 C 23.738281 3.011719 23.621094 2.878906 23.464844 2.839844 C 23.304688 2.796875 23.136719 2.851562 23.039062 2.980469 C 21.207031 5.292969 19.359375 6.917969 17.542969 7.816406 C 17.03125 8.070312 16.433594 8.09375 15.90625 7.886719 C 15.375 7.675781 14.972656 7.265625 14.769531 6.730469 C 14.316406 5.519531 14.28125 3.054688 14.289062 2.050781 C 14.289062 1.816406 14.121094 1.617188 13.886719 1.582031 C 13.660156 1.546875 13.433594 1.683594 13.363281 1.90625 C 13.171875 2.511719 12.78125 3.234375 12 3.234375 C 11.390625 3.234375 10.964844 2.804688 10.726562 1.960938 C 10.664062 1.730469 10.449219 1.589844 10.210938 1.617188 C 9.976562 1.648438 9.804688 1.839844 9.796875 2.078125 C 9.777344 3.074219 9.679688 5.527344 9.226562 6.730469 C 9.027344 7.265625 8.625 7.675781 8.09375 7.886719 C 7.5625 8.09375 6.96875 8.070312 6.457031 7.816406 C 4.640625 6.917969 2.789062 5.292969 0.960938 2.980469 C 0.863281 2.851562 0.695312 2.796875 0.535156 2.839844 C 0.378906 2.882812 0.261719 3.011719 0.238281 3.175781 C 0.183594 3.554688 -1.070312 12.542969 2.777344 15.390625 C 3.234375 15.726562 3.816406 15.8125 4.367188 15.609375 C 5.132812 15.332031 5.988281 15.453125 6.664062 15.929688 C 7.332031 16.402344 7.710938 17.128906 7.703125 17.925781 C 7.703125 18.089844 7.691406 18.261719 7.667969 18.433594 C 7.597656 18.679688 7.304688 19.894531 8.265625 20.597656 C 8.371094 20.675781 8.507812 20.699219 8.632812 20.65625 C 8.757812 20.617188 8.855469 20.515625 8.894531 20.390625 C 8.949219 20.21875 9.183594 19.691406 9.539062 19.523438 C 9.6875 19.457031 9.839844 19.453125 10.023438 19.523438 C 10.207031 19.652344 11.261719 20.457031 11.441406 22.0625 C 11.464844 22.269531 11.640625 22.425781 11.847656 22.425781 C 11.851562 22.425781 11.855469 22.425781 11.859375 22.425781 C 12.074219 22.417969 12.246094 22.246094 12.253906 22.035156 C 12.324219 20.421875 13.480469 19.636719 13.660156 19.527344 C 14.484375 19.222656 15.125 20.441406 15.128906 20.453125 C 15.183594 20.558594 15.285156 20.636719 15.398438 20.667969 C 15.515625 20.695312 15.640625 20.667969 15.734375 20.597656 C 16.695312 19.894531 16.402344 18.679688 16.332031 18.433594 C 16.308594 18.261719 16.296875 18.09375 16.296875 17.925781 C 16.289062 17.128906 16.667969 16.402344 17.335938 15.929688 C 18.011719 15.453125 18.871094 15.335938 19.65625 15.621094 C 20.183594 15.8125 20.765625 15.726562 21.21875 15.390625 C 25.070312 12.542969 23.816406 3.554688 23.761719 3.175781 Z M 4.058594 14.851562 C 3.800781 14.949219 3.496094 14.90625 3.265625 14.734375 C 1 13.0625 0.746094 8.71875 0.839844 5.890625 C 1.746094 10.019531 3.113281 13.304688 4.488281 14.730469 C 4.34375 14.761719 4.199219 14.800781 4.058594 14.851562 Z M 16.863281 15.265625 C 15.976562 15.890625 15.472656 16.863281 15.480469 17.933594 C 15.480469 18.144531 15.496094 18.359375 15.527344 18.578125 C 15.53125 18.601562 15.535156 18.625 15.542969 18.652344 C 15.546875 18.65625 15.707031 19.15625 15.535156 19.578125 C 15.066406 18.980469 14.273438 18.394531 13.324219 18.78125 C 13.308594 18.785156 13.292969 18.792969 13.277344 18.804688 C 13.226562 18.832031 12.339844 19.351562 11.816406 20.453125 C 11.28125 19.363281 10.476562 18.84375 10.429688 18.8125 C 10.410156 18.800781 10.390625 18.789062 10.367188 18.78125 C 10.167969 18.699219 9.964844 18.65625 9.769531 18.65625 C 9.570312 18.65625 9.375 18.699219 9.195312 18.785156 C 8.855469 18.945312 8.605469 19.222656 8.433594 19.488281 C 8.316406 19.09375 8.449219 18.675781 8.457031 18.648438 C 8.464844 18.625 8.46875 18.601562 8.472656 18.578125 C 8.503906 18.359375 8.519531 18.140625 8.519531 17.929688 C 8.527344 16.863281 8.023438 15.890625 7.136719 15.261719 C 6.773438 15.007812 6.371094 14.832031 5.949219 14.738281 C 5.910156 14.710938 5.863281 14.6875 5.816406 14.675781 C 4.699219 14.414062 2.648438 10.875 1.453125 4.824219 C 2.992188 6.53125 4.546875 7.785156 6.097656 8.550781 C 6.8125 8.902344 7.648438 8.9375 8.394531 8.644531 C 9.132812 8.351562 9.714844 7.757812 9.992188 7.015625 C 10.335938 6.105469 10.492188 4.636719 10.5625 3.402344 C 10.9375 3.824219 11.425781 4.050781 12 4.050781 C 12.585938 4.050781 13.09375 3.8125 13.488281 3.371094 C 13.53125 4.613281 13.660156 6.09375 14.007812 7.015625 C 14.285156 7.757812 14.867188 8.351562 15.605469 8.644531 C 16.347656 8.9375 17.1875 8.90625 17.902344 8.550781 C 19.496094 7.761719 21.09375 6.457031 22.675781 4.675781 C 21.484375 10.816406 19.410156 14.414062 18.285156 14.675781 C 18.265625 14.679688 18.253906 14.695312 18.234375 14.699219 C 17.75 14.785156 17.28125 14.96875 16.863281 15.265625 Z M 20.734375 14.734375 C 20.507812 14.902344 20.203125 14.949219 19.910156 14.84375 C 19.808594 14.804688 19.703125 14.777344 19.597656 14.75 C 20.933594 13.378906 22.261719 10.25 23.167969 6.292969 C 23.226562 9.113281 22.894531 13.136719 20.734375 14.734375 Z M 20.734375 14.734375"/>
</svg>

<svg xmlns="http://www.w3.org/2000/svg" width="32" height="32" viewBox="0 0 24 24">
    <path d="M23.762 3.176a.402.402 0 0 0-.297-.336.4.4 0 0 0-.426.14c-1.832 2.313-3.68 3.938-5.496 4.836a2.026 2.026 0 0 1-1.637.07A1.986 1.986 0 0 1 14.77 6.73c-.454-1.21-.489-3.675-.48-4.68a.471.471 0 0 0-.403-.468.476.476 0 0 0-.524.324c-.191.606-.582 1.328-1.363 1.328-.61 0-1.035-.43-1.273-1.273a.475.475 0 0 0-.93.117c-.02.996-.117 3.45-.57 4.652-.2.536-.602.946-1.133 1.157a2.026 2.026 0 0 1-1.637-.07C4.641 6.917 2.789 5.292.961 2.98a.4.4 0 0 0-.426-.14.406.406 0 0 0-.297.336c-.054.379-1.308 9.367 2.54 12.215.456.336 1.038.421 1.59.218a2.504 2.504 0 0 1 2.296.32c.668.473 1.047 1.2 1.04 1.997 0 .164-.013.336-.036.508-.07.246-.363 1.46.598 2.164a.399.399 0 0 0 .367.058.404.404 0 0 0 .262-.265c.054-.172.289-.7.644-.868.149-.066.3-.07.484 0 .184.13 1.239.934 1.418 2.54a.41.41 0 0 0 .407.363h.011a.409.409 0 0 0 .395-.39 3.15 3.15 0 0 1 1.406-2.509c.824-.304 1.465.914 1.469.926a.437.437 0 0 0 .27.215.41.41 0 0 0 .335-.07c.961-.703.668-1.918.598-2.164a3.741 3.741 0 0 1-.035-.508c-.008-.797.371-1.524 1.039-1.996a2.518 2.518 0 0 1 2.32-.309c.528.191 1.11.106 1.563-.23 3.851-2.848 2.597-11.836 2.543-12.215zM4.059 14.852a.842.842 0 0 1-.793-.118C1 13.063.746 8.72.84 5.891c.906 4.129 2.273 7.414 3.648 8.84-.144.03-.289.07-.43.12zm12.804.414a3.2 3.2 0 0 0-1.383 2.668c0 .21.016.425.047.644.004.024.008.047.016.074.004.004.164.504-.008.926-.469-.598-1.262-1.183-2.21-.797a.132.132 0 0 0-.048.024c-.05.027-.937.547-1.46 1.648-.536-1.09-1.34-1.61-1.387-1.64-.02-.012-.04-.024-.063-.032a1.577 1.577 0 0 0-.597-.125c-.2 0-.395.043-.575.13-.34.16-.59.437-.761.702-.118-.394.015-.812.023-.84.008-.023.012-.046.016-.07.03-.219.047-.437.047-.648a3.21 3.21 0 0 0-1.383-2.668 3.33 3.33 0 0 0-1.188-.524.415.415 0 0 0-.133-.062c-1.117-.262-3.168-3.801-4.363-9.852 1.54 1.707 3.094 2.961 4.645 3.727a2.85 2.85 0 0 0 2.297.094 2.817 2.817 0 0 0 1.597-1.63c.344-.91.5-2.378.57-3.613.376.422.864.649 1.438.649.586 0 1.094-.239 1.488-.68.043 1.242.172 2.723.52 3.645.277.742.86 1.336 1.597 1.629a2.836 2.836 0 0 0 2.297-.094c1.594-.79 3.192-2.094 4.774-3.875-1.192 6.14-3.266 9.738-4.39 10-.02.004-.032.02-.052.023a3.37 3.37 0 0 0-1.37.567zm3.871-.532a.876.876 0 0 1-.824.11 2.876 2.876 0 0 0-.312-.094c1.336-1.371 2.664-4.5 3.57-8.457.059 2.82-.273 6.844-2.434 8.441zm0 0"/>
</svg>
